_includes/sets/design-experience.svg

<svg xmlns="http://www.w3.org/2000/svg" width="20" height="20" viewBox="0 0 20 20">
  <path class="main" d="M12,2 C6.44444444,2 2,6.44444444 2,12 C2,17.5555556 6.44444444,22 12,22 C12.8888889,22 13.6666667,21.2222222 13.6666667,20.3333333 C13.6666667,19.8888889 13.5555556,19.5555556 13.2222222,19.2222222 C13,18.8888889 12.7777778,18.5555556 12.7777778,18.1111111 C12.7777778,17.2222222 13.5555991,16.4444444 14.4444444,16.4444444 L16.4444444,16.4444444 C19.5555556,16.4444444 22,14 22,10.8888889 C22,6 17.5555556,2 12,2 Z M5.88888889,12 C5,12 4.22222222,11.2222222 4.22222222,10.3333333 C4.22222222,9.44444444 5,8.66666667 5.88888889,8.66666667 C6.77777778,8.66666667 7.55555556,9.44444444 7.55555556,10.3333333 C7.55555556,11.2222222 6.77777778,12 5.88888889,12 Z M9.22222222,7.55555556 C8.33333333,7.55555556 7.55555556,6.77777778 7.55555556,5.88888889 C7.55555556,5 8.33333333,4.22222222 9.22222222,4.22222222 C10.1111111,4.22222222 10.8888889,5 10.8888889,5.88888889 C10.8888889,6.77777778 10.1111111,7.55555556 9.22222222,7.55555556 Z M14.7777778,7.55555556 C13.8888889,7.55555556 13.1111111,6.77777778 13.1111111,5.88888889 C13.1111111,5 13.8888889,4.22222222 14.7777778,4.22222222 C15.6666667,4.22222222 16.4444444,5 16.4444444,5.88888889 C16.4444444,6.77777778 15.6666667,7.55555556 14.7777778,7.55555556 Z M18.1111111,12 C17.2222222,12 16.4444444,11.2222222 16.4444444,10.3333333 C16.4444444,9.44444444 17.2222222,8.66666667 18.1111111,8.66666667 C19,8.66666667 19.7777778,9.44444444 19.7777778,10.3333333 C19.7777778,11.2222222 19,12 18.1111111,12 Z" transform="translate(-2 -2)"/>
</svg>

<svg width="24" height="24" xmlns="http://www.w3.org/2000/svg"><path d="M12 2C6.444 2 2 6.444 2 12s4.444 10 10 10c.889 0 1.667-.778 1.667-1.667 0-.444-.111-.777-.445-1.11-.222-.334-.444-.667-.444-1.112 0-.889.778-1.667 1.666-1.667h2C19.556 16.444 22 14 22 10.89 22 6 17.556 2 12 2zM5.889 12c-.889 0-1.667-.778-1.667-1.667S5 8.667 5.89 8.667s1.667.777 1.667 1.666c0 .89-.778 1.667-1.667 1.667zm3.333-4.444c-.889 0-1.666-.778-1.666-1.667s.777-1.667 1.666-1.667c.89 0 1.667.778 1.667 1.667s-.778 1.667-1.667 1.667zm5.556 0c-.89 0-1.667-.778-1.667-1.667s.778-1.667 1.667-1.667S16.444 5 16.444 5.89s-.777 1.667-1.666 1.667zM18.11 12c-.889 0-1.667-.778-1.667-1.667s.778-1.666 1.667-1.666 1.667.777 1.667 1.666c0 .89-.778 1.667-1.667 1.667z" class="main" fill="#0D0D17" fill-rule="nonzero"/></svg>
